X:195 
T:Shove Into Me Joanie! (polka)  
S:Barrett < Collins
F:file ID: cre.4/195shove
B:CRE4.077 (Bruigh Isteach Liom, a ShiobhainÃÂÃÂÃÂÃÂ­n)
L:1/8
M:2/4
Q:140
R:polka
K:G
D|GA Bc|d2 dB|c2 cA|B2 BA|
GA Bc|d2 de|f2 dc|AG G:|
e|g2 fe|d2 dB|c2 cA|B2 Bd|
g2 fe|d2 de|f2 dc|AG G:|

%%%

